X:1
T:Title
%%score { ( 1 3 ) | ( 2 4 ) }
L:1/8
Q:1/4=100
M:4/4
K:Ab
V:1 treble nm="Grand Piano"
V:3 treble 
V:2 bass 
V:4 bass 
V:1
 [CE]2 [CE]2 [DF]>[CE] [EA]>[EB] | [Ec]4 [CEA]4 | [FA]2 [FA]2 [FB]>[FA] [EG]>[DF] | [CE]6 z2 | %4
w: W.~O.~Carroll * * * * *||||
 G2 A2 B>B G>G | [CA]4 [Ec]4 | [=DB]>[DB] [DB]>[FA] [EG]2 [DF]2 |[M:3/4] E6 |[M:1/4] G>A | %9
w: |||||
[M:4/4] B4 z4 | [Ec]4 A2 B>c | d2 c2 B2 A2 | G6 z2 | [CA]2 [DB]2 [Ec]2 [Ed]2 | %14
w: |||||
 [Ee]4 [FA]2 [Fd]>[Fd] | [Ec]2 [FB]2 [EA]2 [DG]2 | [CA]6 z2 |] %17
w: |||
V:2
 [A,,A,]2 [A,,A,]2 [A,,A,]>[A,,A,] [C,A,]>[E,G,] | A,4 A,,4 | %2
 [D,D]2 [D,D]2 [D,D]>[D,D] [D,A,]>[D,A,] | [A,,A,]6 z2 | %4
 [E,B,D]2 [E,A,C]2 [E,G,E]>[E,G,E] [E,B,D]>[E,B,D] | [A,,A,]4 [A,,A,]4 | %6
 [B,,F,]>[B,,F,] [B,,F,]>[B,,B,] [B,,B,]2 [B,,A,]2 |[M:3/4] [E,G,]6 |[M:1/4] [E,B,E]>[E,A,E] | %9
[M:4/4] E4 z4 | A,>A, A,>A,[K:treble] [A,CE]2 [G,E]>[A,EA] | %11
 [B,EG]2 [A,EA]2[K:bass] [G,E]2 [F,B,=D]2 | E6 z2 | [A,,A,]2 [A,,A,]2 [A,,A,]2 [B,,A,]2 | %14
 [C,A,]4 [D,A,]2 [B,,A,]>[B,,A,] | [C,A,]2 [D,D]2 [E,C]2 [E,B,]2 | [A,,A,]6 z2 |] %17
V:3
 x8 | x8 | x8 | x8 | x8 | x8 | x8 |[M:3/4] x6 |[M:1/4] x2 |[M:4/4] z z/ G,/ G,>G, E2 B>d | x8 | %11
 x8 | z2 D>C B,>G, E>[DE] | x8 | x8 | x8 | x8 |] %17
V:4
 x8 | x8 | x8 | x8 | x8 | x8 | x8 |[M:3/4] x6 |[M:1/4] x2 | %9
[M:4/4] [E,G,]>E, E,>E, [E,G,]2 [E,G,E]>[E,B,E] | x4[K:treble] x4 | x4[K:bass] x4 | %12
 [E,B,]2 E,>E, E,>D, [C,A,]>[B,,G,] | x8 | x8 | x8 | x8 |] %17

